X: 3
T: Ruffs and Rhees   (D)
O: 1779
R: jig
S: Image from Darlene Wigton, June 2017
Z: 2017 John Chambers <jc:trillian.mit.edu>
M: 6/8
L: 1/8
K: D
% - - - - - - - - - - - - - - - - - - - - - - - - - - - - -
|:\
"D"d2a "(Bm)"fdf | "Em"ged "A7"c2A |\
"D"d2a "(Bm)"fdf | "A7"cAc "D"d3 :|
|:\
"D"F2G "(A7)"ABc | "D"dAG F2D |\
"D"F2G "(A7)"ABc | "D"daf "A7"e3 :|
|:\
"D"a2f "G"(g/a/b)g | "Em"geg "D"a2f |\
"D(Bm)"f2d "G(Em)"(e/f/g)e | "A7"cAc "D"d3 :| [b2D2]
% - - - - - - - - - - - - - - - - - - - - - - - - - - - - -

%%sep 1 1 500

